rospo-icon-theme-classic-common/48x48/apps/distributor-logo-centos.svg

<svg height="48" width="48" xmlns="http://www.w3.org/2000/svg"><path d="m20.51-13.44h28.284v28.284h-28.284z" opacity=".2" transform="matrix(.70710678 .70710678 -.70710678 .70710678 0 0)"/><path d="m24 4-6 6h4v12h4v-12h4z" fill="#f1ac3c"/><path d="m22 26v12h-4l6 6 6-6h-4v-12z" fill="#87b224"/><path d="m38 18v4h-12v4h12v4l6-6z" fill="#3275ba"/><path d="m10 18-6 6 6 6v-4h12v-4h-12z" fill="#a23c8b"/><path d="m10 10h12v12h-12z" fill="#87b224"/><path d="m10 26h12v12h-12z" fill="#3275ba"/><path d="m26 26h12v12h-12z" fill="#f1ac3c"/><path d="m26 10h12v12h-12z" fill="#a23c8b"/><path d="m24 4-20 20 .5.5 19.5-19.5 19.5 19.5.5-.5z" fill="#fff" opacity=".2"/><g opacity=".2" transform="translate(0 1.000422)"><path d="m9.8574219 9.8574219v8.4863281l2.8281251-2.828125 8.486328 8.484375 2.828125-2.828125-8.484375-8.486328 2.828125-2.8281251zm14.1425781 11.3144531 2.828125 2.828125 8.486328-8.484375 2.828125 2.828125v-8.4863281h-8.486328l2.828125 2.8281251zm2.828125 2.828125-2.828125 2.828125 8.484375 8.486328-2.828125 2.828125h8.486328v-8.486328l-2.828125 2.828125zm-2.828125 2.828125-2.828125-2.828125-8.486328 8.484375-2.8281251-2.828125v8.486328h8.4863281l-2.828125-2.828125z"/><path d="m9.8574219 9.8574219v1.0000001h7.4863281l1-1.0000001zm19.7988281 0 1 1.0000001h7.486328v-1.0000001zm-13.640625 3.3281251-.5.5 7.984375 7.986328.5-.5zm7.984375 7.986328.5.5 7.984375-7.986328-.5-.5zm-3.328125 3.328125-7.986328 7.984375-2.8281251-2.828125v1l2.8281251 2.828125 8.486328-8.484375zm.5.5 2.328125 2.328125.5-.5-2.328125-2.328125zm2.828125 1.828125.5.5 2.328125-2.328125-.5-.5zm2.828125-1.828125 8.486328 8.484375 2.828125-2.828125v-1l-2.828125 2.828125-7.986328-7.984375zm-10.8125 10.814453-.5.5 1.828125 1.828125h1zm15.96875 0-2.328125 2.328125h1l1.828125-1.828125z" opacity=".2"/></g><g fill="#e4e4e4"><path d="m9.8574219 9.8574219v8.4863281l2.8281251-2.828125 8.486328 8.484375 2.828125-2.828125-8.484375-8.486328 2.828125-2.8281251zm14.1425781 11.3144531 2.828125 2.828125 8.486328-8.484375 2.828125 2.828125v-8.4863281h-8.486328l2.828125 2.8281251zm2.828125 2.828125-2.828125 2.828125 8.484375 8.486328-2.828125 2.828125h8.486328v-8.486328l-2.828125 2.828125zm-2.828125 2.828125-2.828125-2.828125-8.486328 8.484375-2.8281251-2.828125v8.486328h8.4863281l-2.828125-2.828125z" fill="#fff"/><path d="m9.8574219 9.8574219v1.0000001h7.4863281l1-1.0000001zm19.7988281 0 1 1.0000001h7.486328v-1.0000001zm-13.640625 3.3281251-.5.5 7.984375 7.986328.5-.5zm7.984375 7.986328.5.5 7.984375-7.986328-.5-.5zm-3.328125 3.328125-7.986328 7.984375-2.8281251-2.828125v1l2.8281251 2.828125 8.486328-8.484375zm.5.5 2.328125 2.328125.5-.5-2.328125-2.328125zm2.828125 1.828125.5.5 2.328125-2.328125-.5-.5zm2.828125-1.828125 8.486328 8.484375 2.828125-2.828125v-1l-2.828125 2.828125-7.986328-7.984375zm-10.8125 10.814453-.5.5 1.828125 1.828125h1zm15.96875 0-2.328125 2.328125h1l1.828125-1.828125z" fill="#fff" opacity=".2"/></g></svg>

<svg xmlns="http://www.w3.org/2000/svg" width="48" height="48" version="1.1">
 <rect style="opacity:0.2" width="28.284" height="28.284" x="20.51" y="-13.44" transform="rotate(45)"/>
 <path style="fill:#f1ac3c" d="m 24,4 -6,6 h 4 v 12 h 4 V 10 h 4 z"/>
 <path style="fill:#87b224" d="m 22,26 v 12 h -4 l 6,6 6,-6 H 26 V 26 Z"/>
 <path style="fill:#3275ba" d="m 38,18 v 4 H 26 v 4 h 12 v 4 l 6,-6 z"/>
 <path style="fill:#a23c8b" d="m 10,18 -6,6 6,6 V 26 H 22 V 22 H 10 Z"/>
 <rect style="fill:#87b224" width="12" height="12" x="10" y="10"/>
 <rect style="fill:#3275ba" width="12" height="12" x="10" y="26"/>
 <rect style="fill:#f1ac3c" width="12" height="12" x="26" y="26"/>
 <rect style="fill:#a23c8b" width="12" height="12" x="26" y="10"/>
 <path style="opacity:0.2;fill:#ffffff" d="M 24 4 L 4 24 L 4.5 24.5 L 24 5 L 43.5 24.5 L 44 24 L 24 4 z"/>
 <g style="opacity:0.2" transform="translate(0,1.000422)">
  <path d="M 9.8574219,9.8574219 V 18.34375 L 12.685547,15.515625 21.171875,24 24,21.171875 15.515625,12.685547 18.34375,9.8574219 Z M 24,21.171875 26.828125,24 35.314453,15.515625 38.142578,18.34375 V 9.8574219 H 29.65625 l 2.828125,2.8281251 z M 26.828125,24 24,26.828125 l 8.484375,8.486328 -2.828125,2.828125 h 8.486328 V 29.65625 l -2.828125,2.828125 z M 24,26.828125 21.171875,24 12.685547,32.484375 9.8574219,29.65625 v 8.486328 H 18.34375 l -2.828125,-2.828125 z"/>
  <path style="opacity:0.2" d="M 9.8574219,9.8574219 V 10.857422 H 17.34375 l 1,-1.0000001 z m 19.7988281,0 1,1.0000001 h 7.486328 V 9.8574219 Z m -13.640625,3.3281251 -0.5,0.5 7.984375,7.986328 0.5,-0.5 z M 24,21.171875 l 0.5,0.5 7.984375,-7.986328 -0.5,-0.5 z M 20.671875,24.5 12.685547,32.484375 9.8574219,29.65625 v 1 L 12.685547,33.484375 21.171875,25 Z m 0.5,0.5 2.328125,2.328125 0.5,-0.5 L 21.671875,24.5 Z M 24,26.828125 l 0.5,0.5 L 26.828125,25 l -0.5,-0.5 z M 26.828125,25 l 8.486328,8.484375 2.828125,-2.828125 v -1 L 35.314453,32.484375 27.328125,24.5 Z m -10.8125,10.814453 -0.5,0.5 1.828125,1.828125 h 1 z m 15.96875,0 -2.328125,2.328125 h 1 l 1.828125,-1.828125 z"/>
 </g>
 <g style="fill:#cccccc">
  <path style="fill:#ffffff" d="M 9.8574219 9.8574219 L 9.8574219 18.34375 L 12.685547 15.515625 L 21.171875 24 L 24 21.171875 L 15.515625 12.685547 L 18.34375 9.8574219 L 9.8574219 9.8574219 z M 24 21.171875 L 26.828125 24 L 35.314453 15.515625 L 38.142578 18.34375 L 38.142578 9.8574219 L 29.65625 9.8574219 L 32.484375 12.685547 L 24 21.171875 z M 26.828125 24 L 24 26.828125 L 32.484375 35.314453 L 29.65625 38.142578 L 38.142578 38.142578 L 38.142578 29.65625 L 35.314453 32.484375 L 26.828125 24 z M 24 26.828125 L 21.171875 24 L 12.685547 32.484375 L 9.8574219 29.65625 L 9.8574219 38.142578 L 18.34375 38.142578 L 15.515625 35.314453 L 24 26.828125 z"/>
  <path style="opacity:0.2;fill:#ffffff" d="M 9.8574219 9.8574219 L 9.8574219 10.857422 L 17.34375 10.857422 L 18.34375 9.8574219 L 9.8574219 9.8574219 z M 29.65625 9.8574219 L 30.65625 10.857422 L 38.142578 10.857422 L 38.142578 9.8574219 L 29.65625 9.8574219 z M 16.015625 13.185547 L 15.515625 13.685547 L 23.5 21.671875 L 24 21.171875 L 16.015625 13.185547 z M 24 21.171875 L 24.5 21.671875 L 32.484375 13.685547 L 31.984375 13.185547 L 24 21.171875 z M 20.671875 24.5 L 12.685547 32.484375 L 9.8574219 29.65625 L 9.8574219 30.65625 L 12.685547 33.484375 L 21.171875 25 L 20.671875 24.5 z M 21.171875 25 L 23.5 27.328125 L 24 26.828125 L 21.671875 24.5 L 21.171875 25 z M 24 26.828125 L 24.5 27.328125 L 26.828125 25 L 26.328125 24.5 L 24 26.828125 z M 26.828125 25 L 35.314453 33.484375 L 38.142578 30.65625 L 38.142578 29.65625 L 35.314453 32.484375 L 27.328125 24.5 L 26.828125 25 z M 16.015625 35.814453 L 15.515625 36.314453 L 17.34375 38.142578 L 18.34375 38.142578 L 16.015625 35.814453 z M 31.984375 35.814453 L 29.65625 38.142578 L 30.65625 38.142578 L 32.484375 36.314453 L 31.984375 35.814453 z"/>
 </g>
</svg>
